images/exotherm_icon.svg

<?xml version="1.0" encoding="UTF-8"?>
<svg width="32px" height="30px" viewBox="0 0 32 30" version="1.1" xmlns="http://www.w3.org/2000/svg" xmlns:xlink="http://www.w3.org/1999/xlink">
    <!-- Generator: Sketch 45.2 (43514) - http://www.bohemiancoding.com/sketch -->
    <title>exotherm_icon</title>
    <desc>Created with Sketch.</desc>
    <defs></defs>
    <g id="Round-3" stroke="none" stroke-width="1" fill="none" fill-rule="evenodd">
        <g id="Home" transform="translate(-348.000000, -1380.000000)" stroke="#2E2D38" stroke-width="1.04187556" fill="#FFFFFF" fill-rule="nonzero">
            <g id="Group-2-Copy" transform="translate(348.000000, 1380.000000)">
                <path d="M9.52581311,4.67567148 C9.93015963,5.0844743 9.93015963,5.73174542 9.52581311,6.10648134 C9.1214666,6.51528416 8.48125128,6.51528416 8.11060031,6.10648134 L6.2236499,4.19873486 L6.2236499,6.24274894 C6.2236499,7.12848838 6.05517219,8.01422782 5.68452121,8.83183345 L3.96604852,12.783594 C3.73017972,13.3286644 3.59539755,13.9418687 3.59539755,14.521006 L3.59539755,16.1902842 C3.59539755,16.8034884 3.73017972,17.4507595 3.99974406,18.0298968 L5.61713013,21.5387877 C6.02147664,22.3904602 6.2236499,23.3102666 6.2236499,24.2300729 L6.2236499,27.7048968 C6.2236499,28.2840342 5.78560784,28.7269039 5.21278361,28.7269039 C4.63995938,28.7269039 4.20191732,28.2840342 4.20191732,27.7048968 L4.20191732,24.2300729 C4.20191732,23.6168687 4.06713515,22.9695975 3.79757081,22.3904602 L2.18018474,18.8815694 C1.77583823,18.0298968 1.57366497,17.1100905 1.57366497,16.1902842 L1.57366497,14.521006 C1.57366497,13.6352666 1.74214268,12.7495271 2.11279366,11.9319215 L3.83126635,8.01422782 C4.06713515,7.4691574 4.20191732,6.85595317 4.20191732,6.27681585 L4.20191732,4.23280176 L2.31496691,6.14054824 C2.11279366,6.34494965 1.84322931,6.44715035 1.60736051,6.44715035 C1.37149171,6.44715035 1.10192737,6.34494965 0.899754109,6.14054824 C0.495407593,5.73174542 0.495407593,5.0844743 0.899754109,4.70973838 L4.50517721,1.06457993 C4.90952372,0.655777112 5.54973904,0.655777112 5.92039001,1.06457993 L9.52581311,4.67567148 Z M16.467095,1.03051303 C16.0627485,0.621710211 15.4225331,0.621710211 15.0518822,1.03051303 L11.4464591,4.67567148 C11.0421125,5.0844743 11.0421125,5.73174542 11.4464591,6.10648134 C11.6486323,6.31088275 11.9181967,6.41308345 12.1540655,6.41308345 C12.3899343,6.41308345 12.6594986,6.31088275 12.8616719,6.10648134 L14.7486223,4.19873486 L14.7486223,6.24274894 C14.7486223,6.85595317 14.6138401,7.43509049 14.3779713,7.98016092 L12.6594986,11.8978546 C12.2888476,12.7154602 12.1203699,13.5671327 12.1203699,14.4869391 L12.1203699,16.1562173 C12.1203699,17.0760236 12.3225432,18.0298968 12.7268897,18.8475025 L14.3442758,22.3563933 C14.6138401,22.9355306 14.7486223,23.5487349 14.7486223,24.196006 L14.7486223,27.6708299 C14.7486223,28.2499673 15.1866643,28.692837 15.7594886,28.692837 C16.3323128,28.692837 16.7703549,28.2499673 16.7703549,27.6708299 L16.7703549,24.2300729 C16.7703549,23.3102666 16.5681816,22.3563933 16.1638351,21.5387877 L14.546449,18.0298968 C14.2768847,17.4507595 14.1421025,16.8375553 14.1421025,16.1902842 L14.1421025,14.521006 C14.1421025,13.9078018 14.2768847,13.3286644 14.5127535,12.783594 L16.2312262,8.86590035 C16.6018771,8.04829472 16.7703549,7.19662218 16.7703549,6.27681585 L16.7703549,4.23280176 L18.6573053,6.14054824 C19.0616518,6.54935106 19.7018671,6.54935106 20.0725181,6.14054824 C20.4768646,5.73174542 20.4768646,5.0844743 20.0725181,4.70973838 L16.467095,1.03051303 Z M30.619223,4.67567148 L27.0137999,1.03051303 C26.643149,0.655777112 25.9692381,0.655777112 25.5985871,1.03051303 L21.993164,4.67567148 C21.5888175,5.0844743 21.5888175,5.73174542 21.993164,6.10648134 C22.3975105,6.51528416 23.0377259,6.51528416 23.4083768,6.10648134 L25.2953272,4.19873486 L25.2953272,6.24274894 C25.2953272,6.85595317 25.1605451,7.43509049 24.9246763,7.98016092 L23.2062036,11.8978546 C22.8355526,12.7154602 22.6670749,13.5671327 22.6670749,14.4869391 L22.6670749,16.1562173 C22.6670749,17.0760236 22.8692481,18.0298968 23.2735947,18.8475025 L24.8909807,22.3563933 C25.1605451,22.9355306 25.2953272,23.5487349 25.2953272,24.196006 L25.2953272,27.6708299 C25.2953272,28.2499673 25.7333693,28.692837 26.3061935,28.692837 C26.8790178,28.692837 27.3170598,28.2499673 27.3170598,27.6708299 L27.3170598,24.2300729 C27.3170598,23.3102666 27.1148866,22.3563933 26.71054,21.5387877 L25.093154,18.0298968 C24.8235896,17.4507595 24.6888075,16.8375553 24.6888075,16.1902842 L24.6888075,14.521006 C24.6888075,13.9078018 24.8235896,13.3286644 25.0594584,12.783594 L26.7779311,8.86590035 C27.1485821,8.04829472 27.3170598,7.19662218 27.3170598,6.27681585 L27.3170598,4.23280176 L29.2040102,6.14054824 C29.4061835,6.34494965 29.6757478,6.44715035 29.9116166,6.44715035 C30.1474854,6.44715035 30.4170498,6.34494965 30.619223,6.14054824 C31.0235695,5.73174542 31.0235695,5.0844743 30.619223,4.67567148 Z" id="exotherm_icon"></path>
            </g>
        </g>
    </g>
</svg>

<svg xmlns="http://www.w3.org/2000/svg" width="32" height="30"><title>exotherm_icon</title><desc>Created with Sketch.</desc><g fill="none"><g fill="#fff" fill-rule="nonzero" stroke="#2E2D38" stroke-width="1.042"><g><path d="M9.53 4.68c.4.4.4 1.05 0 1.43-.4.42-1.05.42-1.42 0L6.23 4.2v2.04c0 .9-.16 1.77-.54 2.6l-1.7 3.94c-.25.55-.38 1.16-.38 1.74v1.67c0 .6.13 1.25.4 1.83l1.62 3.5c.4.86.6 1.78.6 2.7v3.47c0 .58-.43 1.03-1 1.03-.58 0-1.02-.45-1.02-1.03v-3.47c0-.6-.13-1.26-.4-1.84l-1.62-3.52c-.4-.85-.6-1.77-.6-2.7v-1.66c0-.88.16-1.77.53-2.6l1.73-3.9c.24-.55.37-1.16.37-1.74V4.23l-1.9 1.9c-.2.2-.46.32-.7.32-.23 0-.5-.1-.7-.3C.5 5.72.5 5.07.9 4.7l3.6-3.64c.4-.4 1.05-.4 1.42 0l3.6 3.62zm6.94-3.65c-.4-.4-1.05-.4-1.42 0l-3.6 3.65c-.4.4-.4 1.05 0 1.43.2.2.47.3.7.3.24 0 .5-.1.7-.3l1.9-1.9v2.04c0 .62-.14 1.2-.37 1.74l-1.72 3.92c-.37.82-.54 1.67-.54 2.6v1.66c0 .92.2 1.87.6 2.7l1.62 3.5c.27.58.4 1.2.4 1.84v3.47c0 .58.45 1.02 1.02 1.02.57 0 1-.45 1-1.03v-3.44c0-.92-.2-1.87-.6-2.7l-1.6-3.5c-.28-.58-.42-1.2-.42-1.84V14.5c0-.6.14-1.2.37-1.74l1.73-3.9c.37-.83.54-1.68.54-2.6V4.23l1.9 1.9c.4.42 1.03.42 1.4 0 .4-.4.4-1.05 0-1.42l-3.6-3.67zm14.15 3.65l-3.6-3.65c-.38-.37-1.05-.37-1.42 0L22 4.68c-.4.4-.4 1.05 0 1.43.4.42 1.04.42 1.4 0l1.9-1.9v2.04c0 .62-.14 1.2-.38 1.74l-1.7 3.92c-.38.82-.55 1.67-.55 2.6v1.66c0 .92.2 1.87.6 2.7l1.62 3.5c.26.58.4 1.2.4 1.84v3.47c0 .58.43 1.02 1 1.02.58 0 1.02-.45 1.02-1.03v-3.44c0-.92-.2-1.87-.6-2.7l-1.63-3.5c-.28-.58-.4-1.2-.4-1.84V14.5c0-.6.12-1.2.36-1.74l1.72-3.9c.37-.83.54-1.68.54-2.6V4.23l1.88 1.9c.2.2.48.32.7.32.25 0 .52-.1.72-.3.4-.42.4-1.07 0-1.47z"/></g></g></g></svg>
